src/img/svg/logo-bank/26.svg

<svg width="140" height="16" viewBox="0 0 140 16" fill="none" xmlns="http://www.w3.org/2000/svg">
<g clip-path="url(#clip0_34_3481)">
<path d="M85.8108 6.65529C85.0797 6.28195 84.2397 6.09529 83.283 6.09529H78.523V3.66084H87.0474V0.69751H74.9219V15.2575H83.2597C84.2474 15.2575 85.0952 15.0553 85.8185 14.6742C86.5419 14.2931 87.1019 13.7564 87.5141 13.072C87.9263 12.3875 88.1285 11.5786 88.1285 10.6453C88.1285 9.71973 87.9263 8.91084 87.5141 8.23418C87.1019 7.55751 86.5341 7.02862 85.8108 6.65529ZM84.053 11.9364C83.7652 12.2242 83.3452 12.372 82.8085 12.372H78.523V8.94195H82.8085C83.1585 8.94195 83.4541 9.01195 83.7108 9.15195C83.9674 9.29195 84.1619 9.4864 84.2941 9.73529C84.4263 9.98418 84.4885 10.2953 84.4885 10.6686C84.4885 11.2286 84.3408 11.6486 84.053 11.9364Z" fill="#E1192F"/>
<path d="M95.1672 0.69751L88.8594 15.2575H92.5849L93.7749 12.3331H100.176L101.358 15.2575H105.247L98.9316 0.69751H95.1672ZM94.9572 9.46307L96.9949 4.48529L99.0171 9.46307H94.9572Z" fill="#E1192F"/>
<path d="M118.027 6.2664H111.081V0.69751H107.379V15.2575H111.081V9.26084H118.027V15.2575H121.713V0.69751H118.027V6.2664Z" fill="#E1192F"/>
<path d="M139.998 15.2575L132.851 7.50307L139.734 0.69751H135.277L129.226 6.93529V0.69751H125.625V15.2575H129.226V8.69307L135.277 15.2575H139.998Z" fill="#E1192F"/>
<path d="M14.6222 0.69751H10.5467L7.49 5.38751L4.27 0.69751H0.0233333L5.10222 7.75195L0 15.2575H4.09889L7.20222 10.4275L10.4844 15.2575H14.7233L9.56667 7.96195L14.6222 0.69751Z" fill="#E1192F"/>
<path d="M27.1999 1.41994C26.0099 0.805496 24.6177 0.494385 23.0077 0.494385C21.3977 0.494385 19.9977 0.805496 18.8077 1.41994C17.6177 2.03438 16.6999 2.9055 16.0621 4.01772C15.4244 5.12994 15.1055 6.45216 15.1055 7.97661C15.1055 9.4855 15.4244 10.8077 16.0621 11.9277C16.6999 13.0477 17.6177 13.9188 18.8077 14.5411C19.9977 15.1555 21.3977 15.4666 23.0077 15.4666C24.6177 15.4666 26.0099 15.1555 27.1999 14.5411C28.3821 13.9266 29.2999 13.0555 29.9455 11.9277C30.591 10.8077 30.9099 9.4855 30.9099 7.97661C30.9099 6.45216 30.591 5.12994 29.9455 4.01772C29.2999 2.9055 28.3821 2.03438 27.1999 1.41994ZM26.6632 10.4499C26.3599 11.1188 25.8932 11.6322 25.2788 11.9822C24.6644 12.3322 23.9021 12.5033 22.9999 12.5033C22.0977 12.5033 21.3432 12.3322 20.7444 11.9822C20.1377 11.6322 19.6866 11.1266 19.3755 10.4499C19.0644 9.78105 18.9088 8.95661 18.9088 7.98439C18.9088 7.01216 19.0644 6.1955 19.3755 5.51883C19.6866 4.84994 20.1455 4.33661 20.7521 3.98661C21.3588 3.63661 22.1055 3.4655 23.0077 3.4655C23.9099 3.4655 24.6644 3.64438 25.2866 3.99439C25.901 4.34438 26.3677 4.85772 26.671 5.52661C26.9744 6.1955 27.1299 7.01216 27.1299 7.98439C27.1221 8.95661 26.9666 9.77327 26.6632 10.4499Z" fill="#E1192F"/>
<path d="M38.7586 7.64306L35.2119 0.69751H31.0586L36.7753 11.3297L34.7764 15.2575H38.7508L46.1164 0.69751H42.1808L38.7586 7.64306Z" fill="#E1192F"/>
<path d="M61.2409 0.69751L56.5976 9.32306L51.8609 0.69751H47.8242V15.2575H51.1764V5.82307L54.9564 12.6831H58.1609L61.8631 5.7764V15.2575H65.2153V0.69751H61.2409Z" fill="#E1192F"/>
</g>
<defs>
<clipPath id="clip0_34_3481">
<rect width="140" height="15.0111" fill="white" transform="translate(0 0.494385)"/>
</clipPath>
</defs>
</svg>

<svg width="140" height="16" viewBox="0 0 140 16" fill="none" xmlns="http://www.w3.org/2000/svg"><g clip-path="url(#a)" fill="#E1192F"><path d="M85.81 6.655c-.73-.373-1.57-.56-2.527-.56h-4.76V3.661h8.524V.698H74.922v14.56h8.338c.987 0 1.835-.203 2.558-.584a4.26 4.26 0 0 0 1.696-1.602c.412-.684.615-1.493.615-2.427 0-.925-.203-1.734-.615-2.41a4.225 4.225 0 0 0-1.703-1.58Zm-1.757 5.281c-.288.288-.708.436-1.245.436h-4.285v-3.43h4.285c.35 0 .646.07.903.21.256.14.45.334.583.583.132.25.195.56.195.934 0 .56-.148.98-.436 1.267ZM95.167.698l-6.308 14.56h3.726l1.19-2.925h6.401l1.182 2.925h3.889L98.932.697h-3.765Zm-.21 8.765 2.038-4.978 2.022 4.978h-4.06Zm23.07-3.197h-6.946V.698h-3.702v14.56h3.702V9.26h6.946v5.997h3.686V.697h-3.686v5.568Zm21.971 8.992-7.147-7.755 6.883-6.805h-4.457l-6.051 6.237V.698h-3.601v14.56h3.601V8.692l6.051 6.565h4.721ZM14.622.698h-4.075L7.49 5.388 4.27.698H.023l5.08 7.054L0 15.258h4.099l3.103-4.83 3.282 4.83h4.24L9.566 7.962 14.622.698ZM27.2 1.42C26.01.805 24.618.494 23.008.494c-1.61 0-3.01.311-4.2.926-1.19.614-2.108 1.486-2.746 2.598-.638 1.112-.957 2.434-.957 3.959 0 1.508.32 2.83.957 3.95.638 1.12 1.556 1.992 2.746 2.614 1.19.614 2.59.926 4.2.926 1.61 0 3.002-.312 4.192-.926 1.182-.614 2.1-1.486 2.745-2.613.646-1.12.965-2.443.965-3.951 0-1.525-.319-2.847-.965-3.96C29.3 2.906 28.383 2.035 27.2 1.42Zm-.537 9.03a3.28 3.28 0 0 1-1.384 1.532c-.615.35-1.377.521-2.28.521-.901 0-1.656-.17-2.255-.52-.606-.35-1.057-.856-1.369-1.533-.31-.669-.466-1.493-.466-2.466 0-.972.155-1.788.466-2.465.312-.67.77-1.182 1.377-1.532.607-.35 1.354-.522 2.256-.522.902 0 1.656.18 2.279.53a3.28 3.28 0 0 1 1.384 1.532c.303.668.459 1.485.459 2.457-.008.973-.163 1.79-.467 2.466Zm12.096-2.807L35.212.698h-4.153l5.716 10.632-1.999 3.928h3.975L46.116.697h-3.935l-3.422 6.945ZM61.24.698l-4.642 8.625L51.86.698h-4.037v14.56h3.352V5.822l3.78 6.86h3.205l3.702-6.907v9.482h3.352V.697H61.24Z"/></g><defs><clipPath id="a"><path fill="#fff" d="M0 .494h140v15.011H0z"/></clipPath></defs></svg>
